src/public/images/postgresql.svg

<?xml version="1.0" encoding="UTF-8"?>
<svg xmlns="http://www.w3.org/2000/svg" xmlns:xlink="http://www.w3.org/1999/xlink" width="46pt" height="48pt" viewBox="0 0 46 48" version="1.1">
<g id="surface1">
<path style="fill-rule:nonzero;fill:rgb(0%,0%,0%);fill-opacity:1;stroke-width:37.4;stroke-linecap:round;stroke-linejoin:round;stroke:rgb(0%,0%,0%);stroke-opacity:1;stroke-miterlimit:4;" d="M 323.192935 324.189453 C 326.017663 300.614014 325.210598 297.20988 342.782609 301.01237 L 347.184783 301.410726 C 360.684783 301.990153 378.403533 299.20166 388.785326 294.385173 C 411.199728 283.991699 424.40625 266.717529 402.39538 271.208089 C 352.100543 281.601562 348.615489 264.617106 348.615489 264.617106 C 401.588315 185.815023 423.892663 85.610352 404.816576 61.310628 C 352.504076 -5.504557 262.002717 26.00179 260.498641 27.015788 L 259.985054 27.015788 C 250.006793 24.987793 239.001359 23.684082 226.491848 23.503011 C 203.710598 23.104655 186.505435 29.514567 173.482337 39.509684 C 173.482337 39.509684 11.88587 -27.088216 19.516304 122.983398 C 20.983696 154.996745 65.188859 364.713135 118.014946 301.302083 C 137.201087 278.088786 155.800272 258.496908 155.800272 258.496908 C 165.008152 264.689535 176.086957 267.803955 187.789402 266.717529 L 188.596467 265.884603 C 188.302989 267.912598 188.413043 270.882161 189 274.901937 C 175.389946 289.894613 179.388587 291.886393 152.205163 297.897949 C 124.80163 302.895508 140.90625 312.890625 151.398098 315.896403 C 164.201087 318.902181 193.805707 322.885742 213.688859 294.892171 L 212.881793 298.115234 C 217.907609 302.316081 217.907609 328.607585 217.907609 347.511393 C 218.898098 366.48763 219.888587 383.906657 223.887228 394.191488 C 226.89538 404.512533 231.884511 431.202393 267.908967 423.48877 C 297.91712 417.513428 319.891304 408.496094 321.908967 322.487386 " transform="matrix(0.106481,0,0,0.107865,0,0)"/>
<path style="fill-rule:nonzero;fill:rgb(20%,40.392157%,56.862745%);fill-opacity:1;stroke-width:12.5;stroke-linecap:round;stroke-linejoin:round;stroke:rgb(100%,100%,100%);stroke-opacity:1;stroke-miterlimit:4;" d="M 402.39538 271.208089 C 352.100543 281.601562 348.615489 264.617106 348.615489 264.617106 C 401.588315 185.815023 423.892663 85.610352 404.816576 61.310628 C 352.504076 -5.504557 262.002717 26.00179 260.498641 27.015788 L 259.985054 27.015788 C 250.006793 24.987793 239.001359 23.684082 226.491848 23.503011 C 203.710598 23.104655 186.505435 29.514567 173.298913 39.509684 C 173.298913 39.509684 11.88587 -27.088216 19.296196 122.983398 C 20.983696 154.996745 65.298913 364.713135 117.904891 301.302083 C 136.907609 278.088786 154.883152 258.496908 154.883152 258.496908 C 163.907609 264.689535 174.913043 267.803955 186.908967 266.717529 L 187.899457 265.884603 C 186.908967 267.912598 187.899457 270.882161 187.899457 274.901937 C 173.88587 289.894613 177.884511 291.886393 150.884511 297.897949 C 123.1875 302.895508 139.915761 312.890625 149.894022 315.896403 C 162.91712 318.902181 192.118207 322.885742 212.111413 294.892171 L 211.414402 298.115234 C 216.586957 302.316081 220.402174 325.710449 219.705163 347.113037 C 219.008152 368.117269 218.714674 382.784017 222.713315 394.082845 C 227.005435 405.490316 231.1875 431.09375 266.69837 423.48877 C 296.706522 417.1875 312.11413 400.492757 314.205163 373.006185 C 315.709239 353.414307 319.194293 356.311442 319.194293 338.711344 L 322.202446 330.309652 C 325.210598 303.511149 322.605978 294.892171 341.205163 298.911947 L 345.497283 299.093018 C 358.813859 299.708659 376.495924 297.101237 386.914402 292.103678 C 409.29212 281.710205 422.498641 264.399821 400.487772 269.107666 Z M 402.39538 271.208089 " transform="matrix(0.106481,0,0,0.107865,0,0)"/>
<path style="fill:none;stroke-width:12.5;stroke-linecap:round;stroke-linejoin:round;stroke:rgb(100%,100%,100%);stroke-opacity:1;stroke-miterlimit:4;" d="M 216 286.490479 C 214.495924 335.99528 216.183424 385.898438 220.98913 397.993978 C 226.014946 410.01709 236.286685 433.701172 272.017663 425.987549 C 301.805707 419.613851 312.591033 407.301025 317.286685 379.995524 C 320.808424 360.00529 327.485054 303.981934 328.29212 292.683105 M 173.005435 38.314616 C 173.005435 38.314616 11.592391 -27.703857 19.002717 122.295329 C 20.690217 154.308675 65.005435 363.988851 117.611413 300.686442 C 136.797554 277.509359 154.186141 259.402262 154.186141 259.402262 M 260.388587 26.182861 C 254.8125 27.993571 350.192935 -8.800049 404.413043 60.586344 C 423.599185 85.103353 401.404891 185.199382 348.39538 264.001465 " transform="matrix(0.106481,0,0,0.107865,0,0)"/>
<path style="fill:none;stroke-width:12.5;stroke-linecap:round;stroke-linejoin:bevel;stroke:rgb(100%,100%,100%);stroke-opacity:1;stroke-miterlimit:4;" d="M 348.285326 264.001465 C 348.285326 264.001465 351.697011 280.985921 401.991848 270.592448 C 424.002717 265.993245 410.796196 283.412272 388.491848 293.805745 C 370.112772 302.316081 328.98913 304.488932 328.29212 292.791748 C 326.60462 262.299398 350.009511 271.606445 348.285326 263.78418 C 346.70788 257.084554 336.289402 250.384928 329.282609 233.617757 C 323.302989 218.987223 246.595109 106.795654 350.706522 123.417969 C 354.485054 122.585042 323.486413 24.408366 226.088315 22.814941 C 129.09375 21.185303 132.101902 142.611491 132.101902 142.611491 " transform="matrix(0.106481,0,0,0.107865,0,0)"/>
<path style="fill:none;stroke-width:12.5;stroke-linecap:round;stroke-linejoin:round;stroke:rgb(100%,100%,100%);stroke-opacity:1;stroke-miterlimit:4;" d="M 188.596467 274.286296 C 174.986413 289.496257 178.985054 292.284749 151.911685 297.716878 C 123.884511 303.402507 139.915761 313.506266 150.884511 316.113688 C 162.91712 320.097249 192.888587 324.117025 212.881793 296.08724 C 218.898098 288.083903 212.881793 274.105225 203.894022 271.099447 C 199.89538 270.085449 193.915761 268.093669 186.908967 275.083008 Z M 187.605978 274.105225 C 186.39538 265.087891 190.61413 255.092773 195.309783 242.091878 C 202.316576 224.093424 218.091033 205.117188 205.288043 146.088053 C 196.006793 102.087809 131.991848 137.106934 131.991848 143.082275 C 131.991848 149.093831 134.596467 174.117839 131.001359 202.11141 C 125.498641 239.0861 154.186141 271.099447 187.202446 267.115885 " transform="matrix(0.106481,0,0,0.107865,0,0)"/>
<path style="fill-rule:nonzero;fill:rgb(100%,100%,100%);fill-opacity:1;stroke-width:4.2;stroke-linecap:round;stroke-linejoin:round;stroke:rgb(100%,100%,100%);stroke-opacity:1;stroke-miterlimit:4;" d="M 172.491848 141.706136 C 172.19837 143.697917 176.307065 149.202474 181.516304 149.890544 C 186.688859 149.890544 191.201087 145.906982 191.494565 143.915202 C 191.788043 141.887207 187.789402 139.895426 182.506793 138.917643 C 177.297554 137.903646 172.785326 138.917643 172.491848 140.909424 Z M 172.491848 141.706136 " transform="matrix(0.106481,0,0,0.107865,0,0)"/>
<path style="fill-rule:nonzero;fill:rgb(100%,100%,100%);fill-opacity:1;stroke-width:2.1;stroke-linecap:round;stroke-linejoin:round;stroke:rgb(100%,100%,100%);stroke-opacity:1;stroke-miterlimit:4;" d="M 331.997283 137.50529 C 332.217391 139.49707 328.182065 145.001628 323.009511 145.689697 C 317.690217 146.48641 313.214674 142.213135 312.994565 140.18514 C 312.701087 138.193359 316.699728 135.911865 321.982337 135.187581 C 327.191576 134.499512 331.703804 135.513509 331.997283 137.613932 Z M 331.997283 137.50529 " transform="matrix(0.106481,0,0,0.107865,0,0)"/>
<path style="fill:none;stroke-width:12.5;stroke-linecap:round;stroke-linejoin:round;stroke:rgb(100%,100%,100%);stroke-opacity:1;stroke-miterlimit:4;" d="M 350.706522 123.417969 C 351.513587 139.388428 347.184783 150.397542 346.70788 167.381999 C 345.900815 192.116292 358.483696 220.399577 339.517663 248.791504 " transform="matrix(0.106481,0,0,0.107865,0,0)"/>
</g>
</svg>

<svg xmlns="http://www.w3.org/2000/svg" width="432.1" height="445.4"><g fill="none" stroke="#FFF" stroke-width="12.5" stroke-linecap="round" stroke-linejoin="round"><path fill="#000" stroke="#000" stroke-width="37.4" d="M323.2 324.2c2.8-23.6 2-27 19.6-23.2l4.4.4c13.5.6 31.2-2.2 41.6-7 22.4-10.4 35.6-27.7 13.6-23.2-50.3 10.4-53.8-6.6-53.8-6.6 53-78.8 75.3-179 56.2-203.3C352.5-5.5 262 26 260.5 27h-.5c-10-2-21-3.3-33.5-3.5-22.8-.4-40 6-53 16 0 0-161.6-66.6-154 83.5C21 155 65.2 364.7 118 301.3c19.2-23.2 37.8-42.8 37.8-42.8 9.2 6.2 20.3 9.3 32 8.2l.8-.8c-.3 2-.2 5 .4 9-13.6 15-9.6 17-36.8 23-27.4 5-11.3 15-.8 18 12.8 3 42.4 7 62.3-21l-.8 3.2c5 4.2 5 30.5 5 49.4 1 19 2 36.4 6 46.7 3 10.3 8 37 44 29.3 30-6 52-15 54-101"/><path fill="#336791" d="M402.4 271.2c-50.3 10.4-53.8-6.6-53.8-6.6 53-78.8 75.3-179 56.2-203.3C352.5-5.5 262 26 260.5 27h-.5c-10-2-21-3.3-33.5-3.5-22.8-.4-40 6-53.2 16 0 0-161.4-66.6-154 83.5 1.7 32 46 241.7 98.6 178.3 19-23.2 37-42.8 37-42.8 9 6.2 20 9.3 32 8.2l1-.8c-1 2 0 5 0 9-14 15-10 17-37 23-27.7 5-11 15-1 18 13 3 42.2 7 62.2-21l-.7 3.2c5.2 4.2 9 27.6 8.3 49-.7 21-1 35.7 3 47 4.3 11.4 8.5 37 44 29.4 30-6.3 45.4-23 47.5-50.5 1.5-19.6 5-16.7 5-34.3l3-8.4c3-26.8.4-35.4 19-31.4l4.3.2c13.3.6 31-2 41.4-7 22.4-10.4 35.6-27.7 13.6-23z"/><path d="M216 286.5c-1.5 49.5.2 99.4 5 111.5 5 12 15.3 35.7 51 28 29.8-6.4 40.6-18.7 45.3-46 3.5-20 10.2-76 11-87.3M173 38.3s-161.4-66-154 84c1.7 32 46 241.7 98.6 178.4 19.2-23.2 36.6-41.3 36.6-41.3M260.4 26.2c-5.6 1.8 89.8-35 144 34.4 19.2 24.5-3 124.6-56 203.4"/><path d="M348.3 264s3.4 17 53.7 6.6c22-4.6 8.8 12.8-13.5 23.2-18.4 8.5-59.5 10.7-60.2-1-1.7-30.5 21.7-21.2 20-29-1.6-6.7-12-13.4-19-30.2-6-14.6-82.7-126.8 21.4-110.2 3.8-.8-27.2-99-124.6-100.6-97-1.6-94 119.8-94 119.8" stroke-linejoin="bevel"/><path d="M188.6 274.3c-13.6 15.2-9.6 18-36.7 23.4-28 5.7-12 15.8-1 18.4 12 4 42 8 62-20 6-8 0-22-9-25-4-1-10-3-17 4zm-1-.2c-1.2-9 3-19 7.7-32 7-18 22.8-37 10-96-9.3-44-73.3-9-73.3-3s2.6 31-1 59c-5.5 37 23.2 69 56.2 65"/><path fill="#FFF" stroke-width="4.2" d="M172.5 141.7c-.3 2 3.8 7.5 9 8.2 5.2 0 9.7-4 10-6 .3-2-3.7-4-9-5-5.2-1-9.7 0-10 2z"/><path fill="#FFF" stroke-width="2.1" d="M332 137.5c.2 2-3.8 7.5-9 8.2-5.3.8-9.8-3.5-10-5.5-.3-2 3.7-4.3 9-5 5.2-.7 9.7.3 10 2.4z"/><path d="M350.7 123.4c.8 16-3.5 27-4 44-.8 24.7 11.8 53-7.2 81.4"/></g></svg>
